packages/webapp/public/images/template-logos/zendesk.svg

<svg width="62" height="62" viewBox="0 0 62 62" fill="none" xmlns="http://www.w3.org/2000/svg">
<rect width="62" height="62" rx="10" fill="white"/>
<g clip-path="url(#clip0_496_1406)">
<path d="M29.3354 22.7783V47.2406H9.07373L29.3354 22.7783ZM29.3354 14C29.3354 16.6869 28.2681 19.2637 26.3682 21.1636C24.4683 23.0635 21.8914 24.1308 19.2046 24.1308C16.5177 24.1308 13.9409 23.0635 12.041 21.1636C10.1411 19.2637 9.07373 16.6869 9.07373 14L29.3354 14ZM32.6733 47.2428C32.6733 44.5559 33.7407 41.9791 35.6406 40.0792C37.5405 38.1793 40.1173 37.1119 42.8042 37.1119C45.491 37.1119 48.0679 38.1793 49.9678 40.0792C51.8677 41.9791 52.935 44.5559 52.935 47.2428H32.6733ZM32.6733 38.4644V14H52.9393L32.6733 38.4623V38.4644Z" fill="#03363D"/>
</g>
<defs>
<clipPath id="clip0_496_1406">
<rect width="44" height="33.3793" fill="white" transform="translate(9 14)"/>
</clipPath>
</defs>
</svg>

<svg xmlns="http://www.w3.org/2000/svg" width="62" height="62" fill="none"><rect width="62" height="62" rx="31" fill="#fff"/><g clip-path="url(#A)"><path d="M29.335 22.778v24.462H9.074l20.262-24.462zm0-8.778a10.13 10.13 0 0 1-10.131 10.131A10.13 10.13 0 0 1 9.074 14h20.262zm3.338 33.243a10.13 10.13 0 0 1 10.131-10.131 10.13 10.13 0 0 1 10.131 10.131H32.673zm0-8.778V14h20.266L32.673 38.462v.002z" fill="#03363d"/></g><defs><clipPath id="A"><path fill="#fff" transform="translate(9 14)" d="M0 0h44v33.379H0z"/></clipPath></defs></svg>
